X:124
T:Grand Menuetto EHo.124
M:3/4
L:1/8
Q:1/4=100
S:Edward Holmes MS, East Riding Archives, Beverley DDX114/21
R:Minuet
C:Mozart
Z:Village Music Project. R.Greig 2016
K:E
.B2 .B.B.B.B|{B//c//B//^A//} Be B2>G2|(BA).A.A.A.A|{B/}(AG/A/)G2z2|
"_f"^A2 AAAA|B>cd2z2|"_p"e>c B2^A2|(^A4B2):|
|:"_mf".B2 .B.B.B.B|{B//c//B//^A//} Be B2>G2|(BA).A.A.A.A|(B/A/G/A/) G2z2|
"_f"c2 cccc|e>fg2z2|B>AG2F2|(F4E2):|
|:(B/c/B/A/ B/c/B/A/ B/c/B/A/)|(B/d/e/B/)G2zG|(A/G/F/E/ D/E/F/G/ A/F/B/A/)|(F2G2)z2|
(F/G/F/^E/ F/c/^B/c/ =B/^A/G/F/)|B/c/B/^A/ B/c/d/e/ f>f|"^tr"f/g/e/c/ B2 ^A>c|(c4B2):|
|:(B.f) {ef}ed {cd}c.B|(Bf) (3(ed).c (3(dc).B|(B/e/d/e/) B2>G2|(A/G/F/E/ D/E/F/G/ A/F/B/A/)|
(F2G2)z2|(A/c/^B/c/ d/c/B/c/) "_f"dd|(ef/e//d//) e>fg2|"_p"(d/c/B/A/) .G2 (G/F/E/F/)|(F4E2):|
|:b|"_var 2"(e'/d'/c'/b/ a/g/f/e/ d/e/{g}f/e/)|(B4B)G|(A/B/A/G/ A/F/f/e/ d/c/B/A/)|(F2G2)z2|
(FG/^A/ B/c/d/^e/ f/g/a/f/)|(b/f/d'/c'/ b/^a/g/f/ e/d/c/B/)|(G/g/e/c/ B/f/d/B/ A/e/c/A/)|(c2B)zz:|
|:.B|(^e/f/g//f/ e/f/g/f/ =e/d/c/B/)|(Be)B2>G|(A/B/A/G/ A/F/f/e/ d/c/B/A/)|(F2G2)z2|
c/E/D/E/ F/G/A/B/ c/B/c/d/|e/B/c/d/ e/f/g/a/ b/c'/d'/e'/|(f/c'/a/f/ f/b/g/e/ d/a/f/d/)|(f2e)zz:|
|:"^f"[E2B,2]e/d/e/B/ g/f/g/e/|b/^a/b/g/ "^sf"e'/d'/c'/b/ =a/g/f/e/|d/B/e/B/ f/B/g/B/ a/B/b/B/|\
(a/g/f/g/ a/g/f/g/)( ^f/e/d/e/)|
z/c/^B/c/ f/c/^a/c/ c'/c/a/c/|z/d/c/d/ f/d/b/d/ d'/d/b/d/|f/g/=a/g/ ^f/e/d/c/ B/^A/f/A/|(c4B2):|
|:"_f"z/(B/^A/B/ c/B/A/B/ d/B/f/B/)|(e/B/^A/B/ c/B/A/B/ =A/G/F/E/)|.D.E.F.G.A.B|\
(A/G/^F/G/ A/G/F/G/ ^F/E/D/E/)|
"^tr"c6|a2>d2 (eB)|(d/c/B/A/)G2.F2|(F4E2)"^Da Capo":|

